src/topics/icons/positionly.svg

<svg height="350" preserveAspectRatio="xMidYMid" viewBox="0 0 256 350" width="256" xmlns="http://www.w3.org/2000/svg"><path d="m242.173847 148.646974-106.770969 82.932872c-.103716.080667-.144873.200845-.248588.286452l-68.8242744 53.466152c-3.7238796 2.897448-4.4103772 8.279129-1.5079901 12.012886 1.6907269 2.176379 4.2095314 3.313957 6.7793704 3.313957 1.8339531 0 3.6761375-.587721 5.2466862-1.809259l69.0662769-53.648889c.111947-.079021.151458-.1992.255173-.286452l106.524028-82.74355c3.723879-2.904034 4.410377-8.287361 1.50799-12.017825-2.904034-3.733758-8.262667-4.418609-12.027703-1.506344zm0-48.953706-69.064631 53.65712c-3.732111 2.904034-4.410377 8.285715-1.516221 12.019472 1.690726 2.168147 4.219409 3.317249 6.77937 3.317249 1.833953 0 3.684369-.591014 5.246686-1.802674l69.074509-53.65712c3.723879-2.902387 4.410377-8.293946 1.50799-12.027703-2.904034-3.7238797-8.262667-4.4087311-12.027703-1.506344zm0-48.943828-69.064631 53.648889c-3.732111 2.904033-4.410377 8.285714-1.516221 12.019471 1.690726 2.169794 4.219409 3.309018 6.77937 3.309018 1.833953 0 3.684369-.581136 5.246686-1.802674l69.074509-53.6488886c3.723879-2.9023872 4.410377-8.2857144 1.50799-12.0178253-2.904034-3.7238795-8.262667-4.4186086-12.027703-1.5079901zm-106.770969 229.877949-69.0728624 53.658767c-3.7238796 2.885924-4.4103772 8.277483-1.5079901 11.999716 1.6907269 2.176379 4.2095314 3.318895 6.7793704 3.318895 1.8339531 0 3.6761375-.581136 5.2466862-1.809259l69.0662769-53.642304c3.730465-2.894155 4.410377-8.28736 1.514575-12.009593-2.902387-3.732111-8.270897-4.416963-12.026056-1.516222zm12.026056-145.341603c-2.902387-3.732111-8.270897-4.416962-12.026056-1.512929l-69.0728624 53.655474c-3.7238796 2.904034-4.4103772 8.287361-1.5079901 12.012887 1.6907269 2.18461 4.2095314 3.315602 6.7793704 3.315602 1.8339531 0 3.6761375-.581136 5.2466862-1.802674l69.0662769-53.648888c3.730465-2.902388 4.410377-8.285715 1.514575-12.019472zm-1.275865-37.2042236 106.540491-82.7583665c3.723879-2.9023871 4.410377-8.27748288 1.50799-12.00959381-2.904034-3.73211094-8.262667-4.41696235-12.027703-1.51622152l-106.770969 82.94274953c-.095484.0724362-.144873.1909682-.23871.2699895l-131.86188385 102.4182114c-3.72552583 2.904034-4.40214585 8.287361-1.49975874 12.012887 1.69072692 2.18461 4.20953139 3.315602 6.77113907 3.315602 1.84218442 0 3.68436892-.581136 5.25491752-1.802674l132.085777-102.5927164c.103716-.0790214.143226-.1991996.23871-.2798672zm-137.57940452 59.0585566c1.84218442 0 3.68436892-.591014 5.25491752-1.80432l132.085777-102.6075335c3.730465-2.9040334 4.410377-8.2791292 1.514575-12.0112402-2.902387-3.7403423-8.270897-4.4186086-12.026056-1.5145752l-132.10059385 102.6075339c-3.72552583 2.904033-4.40214585 8.279129-1.49975874 12.01124 1.69072692 2.178025 4.20953139 3.318895 6.77113907 3.318895zm126.82921352 25.583151-69.0728624 53.657121c-3.7238796 2.905679-4.4103772 8.280775-1.5079901 12.009593 1.6907269 2.179672 4.2095314 3.318896 6.7793704 3.318896 1.8339531 0 3.6761375-.587721 5.2466862-1.799382l69.0662769-53.658766c3.730465-2.90568 4.410377-8.280776 1.514575-12.019472-2.902387-3.740342-8.270897-4.42684-12.026056-1.50799z" fill="#169751"/></svg>

<?xml version="1.0" encoding="UTF-8" standalone="no"?>
<svg width="256px" height="350px" viewBox="0 0 256 350" version="1.1" xmlns="http://www.w3.org/2000/svg" xmlns:xlink="http://www.w3.org/1999/xlink" preserveAspectRatio="xMidYMid">
    <g>
        <path d="M242.173847,148.646974 L135.402878,231.579846 C135.299162,231.660513 135.258005,231.780691 135.15429,231.866298 L66.3300156,285.33245 C62.606136,288.229898 61.9196384,293.611579 64.8220255,297.345336 C66.5127524,299.521715 69.0315569,300.659293 71.6013959,300.659293 C73.435349,300.659293 75.2775334,300.071572 76.8480821,298.850034 L145.914359,245.201145 C146.026306,245.122124 146.065817,245.001945 146.169532,244.914693 L252.69356,162.171143 C256.417439,159.267109 257.103937,153.883782 254.20155,150.153318 C251.297516,146.41956 245.938883,145.734709 242.173847,148.646974 Z M242.173847,99.693268 L173.109216,153.350388 C169.377105,156.254422 168.698839,161.636103 171.592995,165.36986 C173.283721,167.538007 175.812404,168.687109 178.372365,168.687109 C180.206318,168.687109 182.056734,168.096095 183.619051,166.884435 L252.69356,113.227315 C256.417439,110.324928 257.103937,104.933369 254.20155,101.199612 C251.297516,97.4757323 245.938883,96.7908809 242.173847,99.693268 Z M242.173847,50.74944 L173.109216,104.398329 C169.377105,107.302362 168.698839,112.684043 171.592995,116.4178 C173.283721,118.587594 175.812404,119.726818 178.372365,119.726818 C180.206318,119.726818 182.056734,119.145682 183.619051,117.924144 L252.69356,64.2752554 C256.417439,61.3728682 257.103937,55.989541 254.20155,52.2574301 C251.297516,48.5335506 245.938883,47.8388215 242.173847,50.74944 Z M135.402878,280.627389 L66.3300156,334.286156 C62.606136,337.17208 61.9196384,342.563639 64.8220255,346.285872 C66.5127524,348.462251 69.0315569,349.604767 71.6013959,349.604767 C73.435349,349.604767 75.2775334,349.023631 76.8480821,347.795508 L145.914359,294.153204 C149.644824,291.259049 150.324736,285.865844 147.428934,282.143611 C144.526547,278.4115 139.158037,277.726648 135.402878,280.627389 Z M147.428934,135.285786 C144.526547,131.553675 139.158037,130.868824 135.402878,133.772857 L66.3300156,187.428331 C62.606136,190.332365 61.9196384,195.715692 64.8220255,199.441218 C66.5127524,201.625828 69.0315569,202.75682 71.6013959,202.75682 C73.435349,202.75682 75.2775334,202.175684 76.8480821,200.954146 L145.914359,147.305258 C149.644824,144.40287 150.324736,139.019543 147.428934,135.285786 Z M146.153069,98.0815624 L252.69356,15.3231959 C256.417439,12.4208088 257.103937,7.04571302 254.20155,3.31360209 C251.297516,-0.41850885 245.938883,-1.10336026 242.173847,1.79738057 L135.402878,84.7401301 C135.307394,84.8125663 135.258005,84.9310983 135.164168,85.0101196 L3.30228415,187.428331 C-0.423241678,190.332365 -1.0998617,195.715692 1.80252541,199.441218 C3.49325233,201.625828 6.0120568,202.75682 8.57366448,202.75682 C10.4158489,202.75682 12.2580334,202.175684 13.828582,200.954146 L145.914359,98.3614296 C146.018075,98.2824082 146.057585,98.16223 146.153069,98.0815624 Z M8.57366448,157.140119 C10.4158489,157.140119 12.2580334,156.549105 13.828582,155.335799 L145.914359,52.7282655 C149.644824,49.8242321 150.324736,44.4491363 147.428934,40.7170253 C144.526547,36.976683 139.158037,36.2984167 135.402878,39.2024501 L3.30228415,141.809984 C-0.423241678,144.714017 -1.0998617,150.089113 1.80252541,153.821224 C3.49325233,155.999249 6.0120568,157.140119 8.57366448,157.140119 Z M135.402878,182.72327 L66.3300156,236.380391 C62.606136,239.28607 61.9196384,244.661166 64.8220255,248.389984 C66.5127524,250.569656 69.0315569,251.70888 71.6013959,251.70888 C73.435349,251.70888 75.2775334,251.121159 76.8480821,249.909498 L145.914359,196.250732 C149.644824,193.345052 150.324736,187.969956 147.428934,184.23126 C144.526547,180.490918 139.158037,179.80442 135.402878,182.72327 Z" fill="#169751"></path>
    </g>
</svg>
